img/icones/servicos/carcaca-icone.svg

<svg width="24" height="24" fill="none" xmlns="http://www.w3.org/2000/svg"><path fill-rule="evenodd" clip-rule="evenodd" d="M12 2C6.48 2 2 6.48 2 12s4.48 10 10 10 10-4.48 10-10S17.52 2 12 2Zm4.54 13.85-.69.69a.996.996 0 0 1-1.41 0l-3.05-3.05c-1.22.43-2.64.17-3.62-.81a3.468 3.468 0 0 1-.59-4.1l2.35 2.35 1.41-1.41-2.36-2.35c1.32-.71 2.99-.52 4.1.59.98.98 1.24 2.4.81 3.62l3.05 3.05c.39.39.39 1.03 0 1.42Z" fill="url(#a)"/><defs><linearGradient id="a" x1="12" y1="2.4" x2="16.222" y2="20.622" gradientUnits="userSpaceOnUse"><stop stop-color="#345EC2"/><stop offset="1" stop-color="#113896"/></linearGradient></defs></svg>

<svg width="24" height="24" viewBox="0 0 24 24" fill="none" xmlns="http://www.w3.org/2000/svg">
<path fill-rule="evenodd" clip-rule="evenodd" d="M12 2C6.48 2 2 6.48 2 12C2 17.52 6.48 22 12 22C17.52 22 22 17.52 22 12C22 6.48 17.52 2 12 2ZM16.54 15.85L15.85 16.54C15.46 16.93 14.83 16.93 14.44 16.54L11.39 13.49C10.17 13.92 8.75 13.66 7.77 12.68C6.66 11.57 6.47 9.89 7.18 8.58L9.53 10.93L10.94 9.52L8.58 7.17C9.9 6.46 11.57 6.65 12.68 7.76C13.66 8.74 13.92 10.16 13.49 11.38L16.54 14.43C16.93 14.82 16.93 15.46 16.54 15.85Z" fill="url(#paint0_linear_434_171)"/>
<defs>
<linearGradient id="paint0_linear_434_171" x1="12" y1="2.4" x2="16.2216" y2="20.6219" gradientUnits="userSpaceOnUse">
<stop stop-color="#345EC2"/>
<stop offset="1" stop-color="#113896"/>
</linearGradient>
</defs>
</svg>
